!!! OTL: Literature6
!!! Chapter: 5
!!! Section: I
!!! Page: 346
!!! Mode: 
!!! Encoder: DJB
**kern
*staff1
*I"Piano
=1-
*clefG2
*k[b-e-]
*B-:
*M4/4
4r
4r
4r
4g/
=2
4g/
4g/
4f#/
4d/
=3
4g/
4a/
4b-\
4b-\
=4
4cc\
4b-\
4a/
4a/
=5
4b-\
4cc\
8dd\L
8cc\J
4b-\
=6
4ee-\
4ee-\
4dd\
8dd\L
8cc\J
=7
2cc\
4b-\
4b-\
=8
4a/
4g/
4f/
8d/L
8e-/J
=9
!!linebreak:original
4f/
4f/
4g/
4f/
=10
2e-/
4d/
4dd\
=11
4cc\
8b-/L
8a/J
2a/
=12
2.g/
4r
==
*-
